X:1
T: Bettine
N:
C:Larry Unger
S:
A:
O:
R:
M:4/4
K:G
I:speed 200
%W: A1
% voice 1 (1 lines, 51 notes)
K:G
M:4/4
L:1/16
G2 A2 B2 d2 b4 b2 a2 |g2 a2 g2 d2 e4 g2 e2 |d4 B2 d2 e2 d2 B2 G2 |B4 A4 A4 B2 A2 |G2 A2 B2 d2 b4 b2 a2 |g2 a2 g2 d2 e4 g2 e2 |d4 B2 d2 e2 d2 B2 G2 |E4 G2 A2 G8 |
%W: A2
% voice 1 (1 lines, 51 notes)
G2 A2 B2 d2 b4 b2 a2 |g2 a2 g2 d2 e4 g2 e2 |d4 B2 d2 e2 d2 B2 G2 |B4 A4 A4 B2 A2 |G2 A2 B2 d2 b4 b2 a2 |g2 a2 g2 d2 e4 g2 e2 |d4 B2 d2 e2 d2 B2 G2 |E4 G2 A2 G8 |
%W: B1
% voice 1 (1 lines, 58 notes)
b2 d2 g2 b2 a2 d2 f2 a2 |g2 f2 e2 g2 f2 d2 B2 d2 |e2 g2 d2 B2 G2 A2 B2 G2 |B4 A4 A2 d2 g2 a2 |b2 d2 g2 b2 a2 d2 f2 a2 |g2 f2 e2 g2 f2 d2 B2 d2 |e2 g2 d2 B2 G2 A2 B2 G2 |A4 G2 A2 G8 |
%W: B2
% voice 1 (1 lines, 58 notes)
b2 d2 g2 b2 a2 d2 f2 a2 |g2 f2 e2 g2 f2 d2 B2 d2 |e2 g2 d2 B2 G2 A2 B2 G2 |B4 A4 A2 d2 g2 a2 |b2 d2 g2 b2 a2 d2 f2 a2 |g2 f2 e2 g2 f2 d2 B2 d2 |e2 g2 d2 B2 G2 A2 B2 G2 |A4 G2 A2 G8 ||
